X:1
T:Hellas  ma dame
T:Pierre Passereau
T:Source : Premier livre contenant 31 chansons à 4, eslevées de plusieurs livres---Paris---P.Attaignant---1535. Editor : André Vierendeels (07/01/18). 
T:Hellas  ma dame
T:©
T:©
T:©
T:©
T:©
T:©
C:Pierre Passereau
Z:©
%%score [ 1 2 3 4 ]
L:1/8
Q:1/4=100
M:2/2
K:C
V:1 treble nm="Soprano" snm="S"
V:2 treble-8 nm="Tenor 1" snm="T 1"
V:3 treble-8 nm="Tenor 2" snm="T 2"
V:4 bass nm="Bass" snm="B"
V:1
 z4 c2 cB | A2 AA G>AGF | E4 CDEF | G2 C2 c2 cB | A2 AA G>AGF | E4 CDEF | G2 C2 z2 G2 | A3 B c4 | %8
w: Hel- las, ma|da- me, faic- tes luy quel- que|bien, à ce po- vre'a-|veu- gle, hel- las, ma|da- me, faic- tes luy quel- que|bien, à ce po- vre'a-|veu- gle, qui|ne voit rien,|
 z2 CD EF G2 | C2 c2 B2 e2- | ed c4 B2 | c8 | z8 | z4 c2 cc | B2 Bc d3 c | B2 G2 z4 | G2 GG F2 FA | %17
w: à ce po- vre'a- veu-|gle qui ne voit|_ _ _ _|rien,||Las mon a-|my, vou- lez vous pas|cou- cher?|ou- y, ma da- me'a- vec|
 G3 F E2 C2 | z8 | c2 cB A2 AA | GAGF E4 | CDEF G2 C2 | CDEF G2 C2 | c2 cB A2 AA | GAGF E4 | %25
w: vous si vou- lez,||hel- las, ma da- me, ne|luy don- nez vous rien|à ce po- vre'a- veu- gle,|à ce po- vre'a- veu- gle|hel- las, ma da- me, ne|luy don- nez vous rien|
 CDEF G2 C2 | z2 G2 A3 B | c4 z2 CD | EF G2 C2 c2 | B2 e3 d c2- | c2 B2 c4- | c8 |] %32
w: à ce po- vre'a- veu- gle,|qui ne voit|rien, à ce|po- vre'a- veu- gle qui|ne voit _ _|_ _ rien?|_|
V:2
 z8 | f2 fe d2 dd | c>dcG c2 cd | ef g2 c4 | f2 fe d2 dd | c>ccB A2 cd | ef g2 e3 d | e2 c2 c2 cd | %8
w: |Hel- las, ma da- me, faic-|tes luy quel- que bien à ce|po- vre'a- veu- gle|Hel- las, ma da- me, faic-|tes luy quel- que bien, à ce|po- vre'a- veu- gle qui|ne voit rien, à ce|
 ef g2 e3 f | a2 g3 fed | c2 g2 a2 g2 | e4 f4 | z8 | f2 ff e2 ef | g2 e2 d4 | g4 z4 | z4 f2 fe | %17
w: po- vre'a- veu- gle qui|ne voit _ _ _|rien qui ne _|voit rien,||Las mon a- my, vou- lez|vous pas cou-|cher?|ou- y, ma|
 d2 d2 cdee | f2 c2 z4 | z4 f2 fe | d2 d2 cdcB | A2 G2 z4 | z2 cd ef g2 | c4 f2 fe | d2 dd cccB | %25
w: da- me, a- vec vous si|vou- lez,|Hel- las, ma|da- me, ne luy don- nez|vous rien,|à ce po- vre'a- veu-|gle, hel- las, ma|da- men ne luy don- nez vous|
 A2 cd ef g2 | e3 d e2 c2 | c2 cd ef g2 | e3 e a2 g2- | gfed c2 g2 | a2 g3 fed | e8 |] %32
w: rien à ce po- vre'a- veu-|gle qui ne voit|rien, à ce po- vre'a- veu-|gle qui ne voit|_ _ _ _ _ _||rien?|
V:3
 c2 cB A2 AA | F>FFF G4 | z2 cd ef g2 | c2 e4 ed | d2 c4 B2 | c4 z4 | cdef g2 c2 | c2 cB A2 FF | %8
w: Hel- la, ma da- me, faic-|tes luy quel- que bien,|à ce po- vre'a- veu-|gle qui ne voit|_ _ _|rien,|à ce po- vre'a- veu- gle|qui ne voit rien, qui ne|
 E>FED E4 | z2 cd ef g2- | gf e2 d2 d2 | c4 z4 | c2 cc B2 Bc | d2 c2 c2 BA | G8 | z4 c2 cc | %16
w: voit _ _ _ rien.|à ce po- vre'a- veu-|* gle qui ne voit|ren,|la, mon a- my, vou- lez|vous pas cou- * *|cher?|ou- y, ma|
 B2 Bc d3 c | B2 G2 c2 cB | A2 A2 FGAB | c2 G2 z2 c2- | c2 B2 c2 cd | ef g2 ge f2 | g4 e4 | %23
w: da- me'a- vec vous si|vou- lez, Hel- las, ma|da- me, ne luy don- nez|vous rien, à|_ ce, à ce po-|vre'a- veu- gle qui ne voit|_ rien|
 z2 c2 d2 c2- | c2 B2 c4 | z4 cdef | g2 c2 c2 cB | A2 AA G>AGF | G4 z2 cd | ef g3 f e2 | %30
w: qui ve voit|_ _ rien,|à ce po- vre'a-|veu- gle qui ne voit|rien, qui ne voit _ _ _|rien à ce|po- vre'a- veu- gle qui|
 d2 d2 c4- | c8 |] %32
w: ne voit rien.|_|
V:4
 z8 | z8 | z8 | C2 CB, A,2 A,A, | F,>G,F,C, G,4 | C,D,E,C, F,2 C,2 | z4 C2 CB, | %7
w: |||Hel- las, ma da- me, faic-|tes luy quel- que bien|à ce po- vre'a- veu- gle,|Hel- las ma|
 A,2 A,A, F,>G,F,F, | C,4 C,D,E,C, | F,2 C,2 z2 C,2- | C,D, E,2 F,2 G,2 | C,4 F,2 F,F, | %12
w: da- me, faic- tec luy quel- que|bien, à ce po- vre'a-|veu- gle, qui|_ _ _ ne voit|rien, las, mon a-|
 E,2 E,F, G,2 E,2 | D,>E, F,2 C,4 | z8 | G,2 G,G, F,2 F,A, | G,2 E,2 D,4 | G,4 z4 | %18
w: my, vou- lez vous pas|cou- * * cher?||ou- y, ma da- 'a- vec|vous si vou-|lez,|
 F,2 F,E, D,2 D,2 | C,D,E,C, F,4 | G,4 C,4 | z2 C,D, E,C, F,2 | C,4 C2 CB, | A,2 A,A, F,>F,F,C, | %24
w: Hel- las, ma da- me,|ne luy don- nez vous|_ rien,|à ce po- vre'a- veu-|gle Hel- las, ma|da- me, ne luy don- nez vous|
 G,4 C,D,E,C, | F,2 C,2 z4 | C2 CB, A,2 A,A, | F,>G,F,F, C,4 | C,D,E,C, F,2 C,2 | z2 C,3 D, E,2 | %30
w: rien, à ce po- vre'a-|veu- gle,|Hel- las, ma da- me, ne|luy don- nez vous rien|à ce po- vre'a- veu- gle,|qui ne voit|
 F,2 G,2 C,4- | C,8 |] %32
w: _ _ rien.|_|

